packages/calcite-ui-icons/icons/variable-plus-16.svg

<?xml version="1.0" encoding="UTF-8"?><svg id="icons" xmlns="http://www.w3.org/2000/svg" viewBox="0 0 16 16"><defs><style>.cls-1{fill:none;}</style></defs><path d="M10.27051,11h-1.14929l-1.23297-2.18121-3.18121,3.18121h-.70703v-1h.29297l3.08459-3.08459-1.64807-2.91541h-.72949v-1h1.31348l1.79828,3.18121,3.18121-3.18121h.70703v1h-.29297l-3.08459,3.08459,1.64807,2.91541ZM12.5,1H3.5C1.57031,1,0,2.57031,0,4.5v7c0,1.92969,1.57031,3.5,3.5,3.5h5.5v-1H3.5c-1.37891,0-2.5-1.12109-2.5-2.5v-7c0-1.37891,1.12109-2.5,2.5-2.5h9c1.37891,0,2.5,1.12109,2.5,2.5v6.5h1v-6.5c0-1.92969-1.57031-3.5-3.5-3.5ZM13,9h-1v3h-3v1h3v3h1v-3h3v-1h-3v-3Z"/><rect class="cls-1" width="16" height="16"/></svg>

<svg xmlns="http://www.w3.org/2000/svg" viewBox="0 0 16 16"><path d="M10.27 11H9.122L7.888 8.819 4.707 12H4v-1h.293l3.085-3.085L5.73 5H5V4h1.313l1.799 3.181L11.293 4H12v1h-.293L8.622 8.085 10.271 11zM12.5 1h-9C1.57 1 0 2.57 0 4.5v7C0 13.43 1.57 15 3.5 15H9v-1H3.5A2.502 2.502 0 0 1 1 11.5v-7C1 3.121 2.121 2 3.5 2h9C13.879 2 15 3.121 15 4.5V11h1V4.5C16 2.57 14.43 1 12.5 1zm.5 8h-1v3H9v1h3v3h1v-3h3v-1h-3V9z"/><path fill="none" d="M0 0h16v16H0z"/></svg>
